packages/ui-icons/svg/Solid/collection.svg

<svg viewBox="0 0 1920 1920" version="1.1" xmlns="http://www.w3.org/2000/svg">
    <path d="M1242.35294,677.647059 L1242.35294,1920 L0,1920 L0,677.647059 L1242.35294,677.647059 Z M903.529412,1468.23529 L338.823529,1468.23529 L338.823529,1581.17647 L903.529412,1581.17647 L903.529412,1468.23529 Z M1581.17647,338.823529 L1581.17647,1581.17647 L1355.29412,1581.17647 L1355.29412,564.705882 L338.823529,564.705882 L338.823529,338.823529 L1581.17647,338.823529 Z M790.701176,1242.35294 L338.823529,1242.35294 L338.823529,1355.29412 L790.701176,1355.29412 L790.701176,1242.35294 Z M1920.03388,-0.0112941176 L1920.03388,1242.34165 L1694.15153,1242.34165 L1694.15153,225.871059 L677.680941,225.871059 L677.680941,-0.0112941176 L1920.03388,-0.0112941176 Z M903.529412,1016.47059 L338.823529,1016.47059 L338.823529,1129.41176 L903.529412,1129.41176 L903.529412,1016.47059 Z" stroke="none" stroke-width="1" fill-rule="evenodd"/>
</svg>

<svg viewBox="0 0 1920 1920" version="1.1" xmlns="http://www.w3.org/2000/svg">
    <path d="M0 1920V677.647h1242.353V1920H0zm338.824-790.588h564.705V1016.47H338.824v112.94zm0 225.882H790.7v-112.941H338.824v112.941zm0 225.882h564.705v-112.94H338.824v112.94zm0-1016.47V338.824h1242.352v1242.352h-225.882V564.706H338.824zM677.68-.011h1242.353v1242.353h-225.882V225.872H677.68V-.012z" stroke="none" stroke-width="1" fill-rule="evenodd"/>
</svg>
